build/img/header-shape-desktop.svg

<svg width="611" height="487" viewBox="0 0 611 487" fill="none" xmlns="http://www.w3.org/2000/svg">
<mask id="path-1-inside-1" fill="white">
<path fill-rule="evenodd" clip-rule="evenodd" d="M60.9993 5.08367C60.9998 5.05583 61 5.02794 61 5C61 2.23858 58.7614 0 56 0C53.2386 0 51 2.23858 51 5C51 7.76142 53.2386 10 56 10C56.7805 10 57.5192 9.82118 58.1774 9.50228L170.038 203.25L9.94413 203.25C9.58226 200.844 7.50652 199 5 199C2.23858 199 0 201.239 0 204C0 206.761 2.23858 209 5 209C5.73145 209 6.42622 208.843 7.05242 208.561L162.736 478.212C161.673 479.129 161 480.486 161 482C161 484.761 163.239 487 166 487C168.761 487 171 484.761 171 482C171 480.173 170.021 478.576 168.558 477.703L248.526 339.195L328.061 476.954C326.812 477.863 326 479.337 326 481C326 483.761 328.239 486 331 486C333.761 486 336 483.761 336 481C336 479.442 335.287 478.05 334.17 477.133L604.088 9.62149C604.677 9.8654 605.323 10 606 10C608.761 10 611 7.76142 611 5C611 2.23858 608.761 0 606 0C603.239 0 601 2.23858 601 5C601 5.02793 601 5.0558 601.001 5.08362L60.9993 5.08367ZM601.118 6.08362L60.8822 6.08367C60.6232 7.25619 59.9525 8.2741 59.0294 8.97808L171.192 203.25L325.859 203.25H327.014L326.436 204.25L249.103 338.195L328.924 476.45C329.557 476.161 330.26 476 331 476C331.844 476 332.639 476.209 333.336 476.578L603.207 9.14778C602.162 8.44302 601.398 7.35408 601.118 6.08362ZM167.649 477.278L247.948 338.195L170.615 204.25L9.99386 204.25C9.91659 205.819 9.11589 207.198 7.9183 208.06L163.558 477.636C164.28 477.231 165.113 477 166 477C166.578 477 167.133 477.098 167.649 477.278ZM171.77 204.25L248.526 337.195L325.282 204.25L171.77 204.25Z"/>
</mask>
<path fill-rule="evenodd" clip-rule="evenodd" d="M60.9993 5.08367C60.9998 5.05583 61 5.02794 61 5C61 2.23858 58.7614 0 56 0C53.2386 0 51 2.23858 51 5C51 7.76142 53.2386 10 56 10C56.7805 10 57.5192 9.82118 58.1774 9.50228L170.038 203.25L9.94413 203.25C9.58226 200.844 7.50652 199 5 199C2.23858 199 0 201.239 0 204C0 206.761 2.23858 209 5 209C5.73145 209 6.42622 208.843 7.05242 208.561L162.736 478.212C161.673 479.129 161 480.486 161 482C161 484.761 163.239 487 166 487C168.761 487 171 484.761 171 482C171 480.173 170.021 478.576 168.558 477.703L248.526 339.195L328.061 476.954C326.812 477.863 326 479.337 326 481C326 483.761 328.239 486 331 486C333.761 486 336 483.761 336 481C336 479.442 335.287 478.05 334.17 477.133L604.088 9.62149C604.677 9.8654 605.323 10 606 10C608.761 10 611 7.76142 611 5C611 2.23858 608.761 0 606 0C603.239 0 601 2.23858 601 5C601 5.02793 601 5.0558 601.001 5.08362L60.9993 5.08367ZM601.118 6.08362L60.8822 6.08367C60.6232 7.25619 59.9525 8.2741 59.0294 8.97808L171.192 203.25L325.859 203.25H327.014L326.436 204.25L249.103 338.195L328.924 476.45C329.557 476.161 330.26 476 331 476C331.844 476 332.639 476.209 333.336 476.578L603.207 9.14778C602.162 8.44302 601.398 7.35408 601.118 6.08362ZM167.649 477.278L247.948 338.195L170.615 204.25L9.99386 204.25C9.91659 205.819 9.11589 207.198 7.9183 208.06L163.558 477.636C164.28 477.231 165.113 477 166 477C166.578 477 167.133 477.098 167.649 477.278ZM171.77 204.25L248.526 337.195L325.282 204.25L171.77 204.25Z" fill="white"/>
<path d="M60.9993 5.08367L59.9994 5.06723L59.9827 6.08367H60.9993V5.08367ZM58.1774 9.50228L59.0434 9.00228L58.5784 8.19681L57.7413 8.60234L58.1774 9.50228ZM170.038 203.25V204.25H171.77L170.904 202.75L170.038 203.25ZM9.94413 203.25L8.95525 203.399L9.0833 204.25H9.94413V203.25ZM7.05242 208.561L7.91844 208.061L7.46616 207.277L6.6415 207.649L7.05242 208.561ZM162.736 478.212L163.389 478.97L164.016 478.429L163.602 477.712L162.736 478.212ZM168.558 477.703L167.692 477.203L167.199 478.057L168.046 478.562L168.558 477.703ZM248.526 339.195L249.392 338.695L248.526 337.195L247.66 338.695L248.526 339.195ZM328.061 476.954L328.649 477.763L329.377 477.234L328.927 476.454L328.061 476.954ZM334.17 477.133L333.304 476.633L332.88 477.368L333.536 477.906L334.17 477.133ZM604.088 9.62149L604.471 8.69758L603.661 8.36207L603.222 9.12149L604.088 9.62149ZM601.001 5.08362V6.08362H602.016L602.001 5.06827L601.001 5.08362ZM60.8822 6.08367V5.08367H60.0791L59.9058 5.86791L60.8822 6.08367ZM601.118 6.08362L602.094 5.86788L601.921 5.08362H601.118V6.08362ZM59.0294 8.97808L58.423 8.18295L57.7236 8.71636L58.1634 9.47808L59.0294 8.97808ZM171.192 203.25L170.326 203.75L170.615 204.25H171.192V203.25ZM325.859 203.25V202.25V203.25ZM327.014 203.25L327.88 203.75L328.746 202.25H327.014V203.25ZM326.436 204.25L327.302 204.75V204.75L326.436 204.25ZM249.103 338.195L248.237 337.695L247.948 338.195L248.237 338.695L249.103 338.195ZM328.924 476.45L328.058 476.95L328.513 477.737L329.34 477.359L328.924 476.45ZM333.336 476.578L332.868 477.462L333.72 477.913L334.202 477.078L333.336 476.578ZM603.207 9.14778L604.073 9.64778L604.539 8.84031L603.766 8.31882L603.207 9.14778ZM247.948 338.195L248.814 338.695L249.103 338.195L248.814 337.695L247.948 338.195ZM167.649 477.278L167.319 478.222L168.101 478.495L168.515 477.778L167.649 477.278ZM170.615 204.25L171.481 203.75L171.192 203.25H170.615V204.25ZM9.99386 204.25V203.25H9.04189L8.99507 204.201L9.99386 204.25ZM7.9183 208.06L7.334 207.249L6.60011 207.777L7.05227 208.56L7.9183 208.06ZM163.558 477.636L162.692 478.136L163.186 478.991L164.047 478.508L163.558 477.636ZM248.526 337.195L247.66 337.695L248.526 339.195L249.392 337.695L248.526 337.195ZM171.77 204.25V203.25H170.038L170.904 204.75L171.77 204.25ZM325.282 204.25L326.148 204.75L327.014 203.25H325.282V204.25ZM60 5C60 5.02248 59.9998 5.04489 59.9994 5.06723L61.9992 5.10011C61.9997 5.06678 62 5.0334 62 5H60ZM56 1C58.2091 1 60 2.79086 60 5H62C62 1.68629 59.3137 -1 56 -1V1ZM52 5C52 2.79086 53.7909 1 56 1V-1C52.6863 -1 50 1.68629 50 5H52ZM56 9C53.7909 9 52 7.20914 52 5H50C50 8.31371 52.6863 11 56 11V9ZM57.7413 8.60234C57.2161 8.85682 56.6262 9 56 9V11C56.9347 11 57.8222 10.7855 58.6134 10.4022L57.7413 8.60234ZM170.904 202.75L59.0434 9.00228L57.3113 10.0023L169.172 203.75L170.904 202.75ZM9.94413 204.25L170.038 204.25V202.25L9.94413 202.25V204.25ZM5 200C7.00432 200 8.66589 201.475 8.95525 203.399L10.933 203.101C10.4986 200.214 8.00872 198 5 198V200ZM1 204C1 201.791 2.79086 200 5 200V198C1.68629 198 -1 200.686 -1 204H1ZM5 208C2.79086 208 1 206.209 1 204H-1C-1 207.314 1.68629 210 5 210V208ZM6.6415 207.649C6.14193 207.874 5.58701 208 5 208V210C5.8759 210 6.71051 209.812 7.46333 209.472L6.6415 207.649ZM163.602 477.712L7.91844 208.061L6.18639 209.061L161.87 478.712L163.602 477.712ZM162 482C162 480.789 162.537 479.705 163.389 478.97L162.083 477.455C160.809 478.554 160 480.183 160 482H162ZM166 486C163.791 486 162 484.209 162 482H160C160 485.314 162.686 488 166 488V486ZM170 482C170 484.209 168.209 486 166 486V488C169.314 488 172 485.314 172 482H170ZM168.046 478.562C169.218 479.261 170 480.54 170 482H172C172 479.807 170.823 477.89 169.071 476.844L168.046 478.562ZM247.66 338.695L167.692 477.203L169.424 478.203L249.392 339.695L247.66 338.695ZM328.927 476.454L249.392 338.695L247.66 339.695L327.195 477.454L328.927 476.454ZM327 481C327 479.67 327.648 478.492 328.649 477.763L327.473 476.146C325.976 477.235 325 479.004 325 481H327ZM331 485C328.791 485 327 483.209 327 481H325C325 484.314 327.686 487 331 487V485ZM335 481C335 483.209 333.209 485 331 485V487C334.314 487 337 484.314 337 481H335ZM333.536 477.906C334.431 478.641 335 479.754 335 481H337C337 479.13 336.143 477.459 334.805 476.36L333.536 477.906ZM603.222 9.12149L333.304 476.633L335.036 477.633L604.954 10.1215L603.222 9.12149ZM606 9C605.456 9 604.941 8.89214 604.471 8.69758L603.706 10.5454C604.414 10.8387 605.189 11 606 11V9ZM610 5C610 7.20914 608.209 9 606 9V11C609.314 11 612 8.31371 612 5H610ZM606 1C608.209 1 610 2.79086 610 5H612C612 1.68629 609.314 -1 606 -1V1ZM602 5C602 2.79086 603.791 1 606 1V-1C602.686 -1 600 1.68629 600 5H602ZM602.001 5.06827C602 5.04483 602 5.02212 602 5H600C600 5.03373 600 5.06678 600.001 5.09898L602.001 5.06827ZM60.9993 6.08367L601.001 6.08362V4.08362L60.9993 4.08367V6.08367ZM60.8822 7.08367L601.118 7.08362V5.08362L60.8822 5.08367V7.08367ZM59.6359 9.77321C60.7417 8.92981 61.5472 7.70896 61.8587 6.29943L59.9058 5.86791C59.6991 6.80343 59.1632 7.61839 58.423 8.18295L59.6359 9.77321ZM172.058 202.75L59.8955 8.47808L58.1634 9.47808L170.326 203.75L172.058 202.75ZM325.859 202.25L171.192 202.25V204.25L325.859 204.25V202.25ZM327.014 202.25H325.859V204.25H327.014V202.25ZM327.302 204.75L327.88 203.75L326.148 202.75L325.57 203.75L327.302 204.75ZM249.969 338.695L327.302 204.75L325.57 203.75L248.237 337.695L249.969 338.695ZM329.79 475.95L249.969 337.695L248.237 338.695L328.058 476.95L329.79 475.95ZM331 475C330.113 475 329.269 475.193 328.509 475.54L329.34 477.359C329.844 477.129 330.406 477 331 477V475ZM333.804 475.694C332.966 475.251 332.011 475 331 475V477C331.677 477 332.312 477.167 332.868 477.462L333.804 475.694ZM602.341 8.64778L332.47 476.078L334.202 477.078L604.073 9.64778L602.341 8.64778ZM603.766 8.31882C602.929 7.75372 602.318 6.88161 602.094 5.86788L600.141 6.29936C600.479 7.82656 601.396 9.13232 602.648 9.97675L603.766 8.31882ZM247.082 337.695L166.783 476.778L168.515 477.778L248.814 338.695L247.082 337.695ZM169.749 204.75L247.082 338.695L248.814 337.695L171.481 203.75L169.749 204.75ZM9.99386 205.25L170.615 205.25V203.25L9.99386 203.25V205.25ZM8.50259 208.872C9.93734 207.839 10.8998 206.184 10.9926 204.299L8.99507 204.201C8.93335 205.454 8.29445 206.557 7.334 207.249L8.50259 208.872ZM164.424 477.136L8.78432 207.56L7.05227 208.56L162.692 478.136L164.424 477.136ZM166 476C164.937 476 163.936 476.277 163.069 476.764L164.047 478.508C164.624 478.185 165.289 478 166 478V476ZM167.978 476.334C167.358 476.117 166.691 476 166 476V478C166.464 478 166.907 478.079 167.319 478.222L167.978 476.334ZM249.392 336.695L172.636 203.75L170.904 204.75L247.66 337.695L249.392 336.695ZM324.416 203.75L247.66 336.695L249.392 337.695L326.148 204.75L324.416 203.75ZM171.77 205.25L325.282 205.25V203.25L171.77 203.25V205.25Z" fill="black" fill-opacity="0.5" mask="url(#path-1-inside-1)"/>
</svg>

<svg width="611" height="487" fill="none" xmlns="http://www.w3.org/2000/svg"><mask id="a" fill="#fff"><path fill-rule="evenodd" clip-rule="evenodd" d="M61 5.084V5a5 5 0 10-2.823 4.502L170.038 203.25H9.944a5 5 0 10-2.892 5.311l155.684 269.651a5 5 0 105.822-.509l79.968-138.508 79.535 137.759a5 5 0 106.109.179L604.088 9.621a5 5 0 10-3.087-4.538H60.999zm540.118 1H60.882a5 5 0 01-1.853 2.894L171.192 203.25h155.822l-.578 1-77.333 133.945 79.821 138.255A4.986 4.986 0 01331 476c.844 0 1.639.209 2.336.578L603.207 9.148a5 5 0 01-2.089-3.064zM167.649 477.278l80.299-139.083-77.333-133.945H9.994a4.993 4.993 0 01-2.076 3.81l155.64 269.576A4.976 4.976 0 01166 477c.578 0 1.133.098 1.649.278zm4.121-273.028l76.756 132.945 76.756-132.945H171.77z"/></mask><path fill-rule="evenodd" clip-rule="evenodd" d="M61 5.084V5a5 5 0 10-2.823 4.502L170.038 203.25H9.944a5 5 0 10-2.892 5.311l155.684 269.651a5 5 0 105.822-.509l79.968-138.508 79.535 137.759a5 5 0 106.109.179L604.088 9.621a5 5 0 10-3.087-4.538H60.999zm540.118 1H60.882a5 5 0 01-1.853 2.894L171.192 203.25h155.822l-.578 1-77.333 133.945 79.821 138.255A4.986 4.986 0 01331 476c.844 0 1.639.209 2.336.578L603.207 9.148a5 5 0 01-2.089-3.064zM167.649 477.278l80.299-139.083-77.333-133.945H9.994a4.993 4.993 0 01-2.076 3.81l155.64 269.576A4.976 4.976 0 01166 477c.578 0 1.133.098 1.649.278zm4.121-273.028l76.756 132.945 76.756-132.945H171.77z" fill="#fff"/><path d="M61 5.084l-1-.017-.017 1.017h1.016v-1zm-2.823 4.418l.866-.5-.465-.805-.837.405.436.9zM170.038 203.25v1h1.732l-.866-1.5-.866.5zm-160.094 0l-.989.149.128.851h.861v-1zm-2.892 5.311l.866-.5-.452-.784-.825.372.411.912zm155.684 269.651l.653.758.627-.541-.414-.717-.866.5zm5.822-.509l-.866-.5-.493.854.847.505.512-.859zm79.968-138.508l.866-.5-.866-1.5-.866 1.5.866.5zm79.535 137.759l.588.809.728-.529-.45-.78-.866.5zm6.109.179l-.866-.5-.424.735.656.538.634-.773zM604.088 9.621l.383-.923-.81-.336-.439.76.866.5zm-3.087-4.537v1h1.015l-.015-1.016-1 .016zm-540.119 1v-1h-.803l-.173.784.976.216zm540.236 0l.976-.216-.173-.784h-.803v1zM59.029 8.978l-.606-.795-.7.533.44.762.866-.5zM171.192 203.25l-.866.5.289.5h.577v-1zm154.667 0v-1 1zm1.155 0l.866.5.866-1.5h-1.732v1zm-.578 1l.866.5-.866-.5zm-77.333 133.945l-.866-.5-.289.5.289.5.866-.5zm79.821 138.255l-.866.5.455.787.827-.378-.416-.909zm4.412.128l-.468.884.852.451.482-.835-.866-.5zM603.207 9.148l.866.5.466-.808-.773-.521-.559.829zM247.948 338.195l.866.5.289-.5-.289-.5-.866.5zm-80.299 139.083l-.33.944.782.273.414-.717-.866-.5zm2.966-273.028l.866-.5-.289-.5h-.577v1zm-160.621 0v-1h-.952l-.047.951.999.049zm-2.076 3.81l-.584-.811-.734.528.452.783.866-.5zm155.64 269.576l-.866.5.494.855.861-.483-.489-.872zm84.968-140.441l-.866.5.866 1.5.866-1.5-.866-.5zM171.77 204.25v-1h-1.732l.866 1.5.866-.5zm153.512 0l.866.5.866-1.5h-1.732v1zM60 5v.067l2 .033V5h-2zm-4-4a4 4 0 014 4h2a6 6 0 00-6-6v2zm-4 4a4 4 0 014-4v-2a6 6 0 00-6 6h2zm4 4a4 4 0 01-4-4h-2a6 6 0 006 6V9zm1.741-.398A3.98 3.98 0 0156 9v2a5.98 5.98 0 002.613-.598l-.872-1.8zM170.904 202.75L59.044 9.002l-1.733 1L169.172 203.75l1.732-1zm-160.96 1.5h160.094v-2H9.944v2zM5 200a4.001 4.001 0 013.955 3.399l1.978-.298A6.002 6.002 0 005 198v2zm-4 4a4 4 0 014-4v-2a6 6 0 00-6 6h2zm4 4a4 4 0 01-4-4h-2a6 6 0 006 6v-2zm1.641-.351c-.5.225-1.054.351-1.641.351v2a5.97 5.97 0 002.463-.528l-.822-1.823zm156.961 270.063L7.918 208.061l-1.732 1L161.87 478.712l1.732-1zM162 482c0-1.211.537-2.295 1.389-3.03l-1.306-1.515A5.989 5.989 0 00160 482h2zm4 4a4 4 0 01-4-4h-2a6 6 0 006 6v-2zm4-4a4 4 0 01-4 4v2a6 6 0 006-6h-2zm-1.954-3.438A3.998 3.998 0 01170 482h2a5.999 5.999 0 00-2.929-5.156l-1.025 1.718zm79.614-139.867l-79.968 138.508 1.732 1 79.968-138.508-1.732-1zm81.267 137.759l-79.535-137.759-1.732 1 79.535 137.759 1.732-1zM327 481c0-1.33.648-2.508 1.649-3.237l-1.176-1.617A5.993 5.993 0 00325 481h2zm4 4a4 4 0 01-4-4h-2a6 6 0 006 6v-2zm4-4a4 4 0 01-4 4v2a6 6 0 006-6h-2zm-1.464-3.094A3.992 3.992 0 01335 481h2c0-1.87-.857-3.541-2.195-4.64l-1.269 1.546zM603.222 9.121L333.304 476.633l1.732 1L604.954 10.122l-1.732-1zM606 9a3.983 3.983 0 01-1.529-.302l-.765 1.847A5.98 5.98 0 00606 11V9zm4-4a4 4 0 01-4 4v2a6 6 0 006-6h-2zm-4-4a4 4 0 014 4h2a6 6 0 00-6-6v2zm-4 4a4 4 0 014-4v-2a6 6 0 00-6 6h2zm.001.068L602 5h-2l.001.099 2-.03zM60.999 6.084h540.002v-2H60.999v2zm-.117 1h540.236v-2H60.882v2zm-1.246 2.69a6.002 6.002 0 002.223-3.475l-1.953-.431a4.002 4.002 0 01-1.483 2.315l1.213 1.59zM172.058 202.75L59.896 8.478l-1.733 1L170.326 203.75l1.732-1zm153.801-.5H171.192v2h154.667v-2zm1.155 0h-1.155v2h1.155v-2zm.288 2.5l.578-1-1.732-1-.578 1 1.732 1zm-77.333 133.945l77.333-133.945-1.732-1-77.333 133.945 1.732 1zM329.79 475.95l-79.821-138.255-1.732 1 79.821 138.255 1.732-1zM331 475c-.887 0-1.731.193-2.491.54l.831 1.819A3.988 3.988 0 01331 477v-2zm2.804.694A5.985 5.985 0 00331 475v2c.677 0 1.312.167 1.868.462l.936-1.768zM602.341 8.648L332.47 476.078l1.732 1L604.073 9.648l-1.732-1zm1.425-.33a4.007 4.007 0 01-1.672-2.45l-1.953.431a6.006 6.006 0 002.507 3.678l1.118-1.658zM247.082 337.696l-80.299 139.083 1.732 1 80.299-139.083-1.732-1zM169.749 204.75l77.333 133.945 1.732-1-77.333-133.945-1.732 1zm-159.755.5h160.621v-2H9.994v2zm-1.491 3.622a5.994 5.994 0 002.49-4.573l-1.998-.098a3.995 3.995 0 01-1.661 3.048l1.169 1.623zm155.921 268.264L8.784 207.56l-1.732 1 155.64 269.576 1.732-1zM166 476a5.97 5.97 0 00-2.931.764l.978 1.744A3.983 3.983 0 01166 478v-2zm1.978.334A5.982 5.982 0 00166 476v2c.464 0 .907.079 1.319.222l.659-1.888zm81.414-139.639L172.636 203.75l-1.732 1 76.756 132.945 1.732-1zm75.024-132.945L247.66 336.695l1.732 1 76.756-132.945-1.732-1zm-152.646 1.5h153.512v-2H171.77v2z" fill="#000" fill-opacity=".5" mask="url(#a)"/></svg>
